X: 1499
T: Gordon Lyall's Mazurka
B: australian traditional tunes wiki
M:3/4
L:1/8
R: Mazurka
Q: 1/4=100
K:G
V:1 
DG||"G"BG BG cB|"D7"A2A2FG|AB AB AF|"G"G2G2DG|BG BG cB|"D7"A2A2FG|AB AB DF|"G"G4"C"e2||
||"G"dBG2"C"e2|"G"d4AB|"D7"c2A2d2|"G"B2G2"C"e2|"G"dBG2"C"e2|"G"d4AB|"D7"c2A2F2|"G"G4z2||
% abcbook-tune_id 6342d53ab722f60dfb892161


% abcbook-boost 0
% abcbook-tablature 
% abcbook-transpose 
% abcbook-lastupdated 1665324368009
% abcbook-soundfonts 
% abcbook-repeats 1
% NFF Book 2013

